X: 34
M:4/4
L:1/8
K:G
"Maestoso"e>d|B2 AF E2 F2|D3 E F2 A2|B2 AF E2 E2|E4 (3BAF|
E2 EF A2 B2|e4 d2 e2|f2 ed B2 e2|d6||

